source/assets/ui/themes/light/visible.svg

<?xml version="1.0" encoding="UTF-8" standalone="no"?>
<!-- Created with Inkscape (http://www.inkscape.org/) -->

<svg
   width="24"
   height="24"
   viewBox="0 0 24 24"
   version="1.1"
   id="SVGRoot"
   xml:space="preserve"
   xmlns="http://www.w3.org/2000/svg"
   xmlns:svg="http://www.w3.org/2000/svg"
   xmlns:rdf="http://www.w3.org/1999/02/22-rdf-syntax-ns#"
   xmlns:cc="http://creativecommons.org/ns#"
   xmlns:dc="http://purl.org/dc/elements/1.1/"><defs
     id="defs1725"><clipPath
       id="clipPath4439-1-0"><path
         d="m 76.965,496.958 h 257.093 v 52.963 H 76.965 Z"
         id="path4441-7-0" /></clipPath></defs><metadata
     id="metadata2103"><rdf:RDF><cc:Work
         rdf:about=""><dc:creator><cc:Agent><dc:title>NinStar</dc:title></cc:Agent></dc:creator></cc:Work></rdf:RDF></metadata><path
     id="path948"
     style="opacity:1;fill:#4f5660;fill-opacity:1;stroke:none;stroke-width:0.187202px;stroke-linecap:butt;stroke-linejoin:miter;stroke-opacity:1"
     d="M 11.809415,6.8735886 C 8.4140073,6.9701818 5.0820871,8.755102 3.0000001,11.855398 5.0016721,15.597167 9.1254072,17.150636 12.122578,17.130352 15.119747,17.110072 18.662755,15.478027 21,12.020755 18.663838,8.3684925 15.204822,6.776996 11.809415,6.8735886 Z M 12,8.3494571 A 3.650457,3.650457 0 0 1 15.650457,11.999915 3.650457,3.650457 0 0 1 12,15.650372 3.650457,3.650457 0 0 1 8.3495442,11.999915 3.650457,3.650457 0 0 1 12,8.3494571 Z m 0,1.6848259 A 1.9656307,1.9656307 0 0 0 10.034369,11.999915 1.9656307,1.9656307 0 0 0 12,13.965544 1.9656307,1.9656307 0 0 0 13.96563,11.999915 1.9656307,1.9656307 0 0 0 12,10.034283 Z" /></svg>

<?xml version="1.0" encoding="UTF-8"?>
<svg id="a" width="24" height="24" version="1.1" viewBox="0 0 24 24" xml:space="preserve" xmlns="http://www.w3.org/2000/svg" xmlns:cc="http://creativecommons.org/ns#" xmlns:dc="http://purl.org/dc/elements/1.1/" xmlns:rdf="http://www.w3.org/1999/02/22-rdf-syntax-ns#"><metadata><rdf:RDF><cc:Work rdf:about=""><dc:creator><cc:Agent><dc:title>NinStar</dc:title></cc:Agent></dc:creator></cc:Work></rdf:RDF></metadata><path d="m11.809 6.8736c-3.3954 0.096593-6.7273 1.8815-8.8094 4.9818 2.0017 3.7418 6.1254 5.2952 9.1226 5.275 2.9972-0.02028 6.5402-1.6523 8.8774-5.1096-2.3362-3.6523-5.7952-5.2438-9.1906-5.1472zm0.19058 1.4759a3.6505 3.6505 0 0 1 3.6505 3.6505 3.6505 3.6505 0 0 1-3.6505 3.6505 3.6505 3.6505 0 0 1-3.6505-3.6505 3.6505 3.6505 0 0 1 3.6505-3.6505zm0 1.6848a1.9656 1.9656 0 0 0-1.9656 1.9656 1.9656 1.9656 0 0 0 1.9656 1.9656 1.9656 1.9656 0 0 0 1.9656-1.9656 1.9656 1.9656 0 0 0-1.9656-1.9656z" fill="#4f5660"/></svg>
